apps/web/src/assets/svgs/edit.svg

<?xml version="1.0" encoding="UTF-8" standalone="no"?>
<!-- Created with Inkscape (http://www.inkscape.org/) -->

<svg
   width="8mm"
   height="8mm"
   viewBox="0 0 8 8"
   version="1.1"
   id="svg1"
   sodipodi:docname="edit_flat.svg"
   inkscape:version="1.3.2 (091e20ef0f, 2023-11-25)"
   xmlns:inkscape="http://www.inkscape.org/namespaces/inkscape"
   xmlns:sodipodi="http://sodipodi.sourceforge.net/DTD/sodipodi-0.dtd"
   xmlns="http://www.w3.org/2000/svg"
   xmlns:svg="http://www.w3.org/2000/svg">
  <sodipodi:namedview
     id="namedview1"
     pagecolor="#ffffff"
     bordercolor="#000000"
     borderopacity="0.25"
     inkscape:showpageshadow="2"
     inkscape:pageopacity="0.0"
     inkscape:pagecheckerboard="0"
     inkscape:deskcolor="#d1d1d1"
     inkscape:document-units="mm"
     inkscape:zoom="13.604718"
     inkscape:cx="20.948615"
     inkscape:cy="23.594756"
     inkscape:window-width="2560"
     inkscape:window-height="1515"
     inkscape:window-x="0"
     inkscape:window-y="1415"
     inkscape:window-maximized="1"
     inkscape:current-layer="layer1" />
  <defs
     id="defs1" />
  <g
     inkscape:label="Capa 1"
     inkscape:groupmode="layer"
     id="layer1"
     transform="translate(-166.17986,-70.962379)">
    <g
       id="g478-8"
       transform="matrix(0.68421769,-0.68421769,0.68421769,0.68421769,25.9848,124.17424)">
      <path
         id="path475-9"
         style="color:#000000;fill:#000000;stroke-linecap:round;stroke-linejoin:round;-inkscape-stroke:none"
         d="M 145.24623 68.077054 C 145.15131 67.986552 145.05039 67.914607 144.94941 67.859538 C 144.54551 67.639263 144.14468 67.652219 144.14468 67.652219 L 144.15261 67.650331 L 138.32047 67.650331 A 0.28422793 0.28422793 0 0 0 138.14261 67.714905 L 136.3126 69.189179 A 0.28422793 0.28422793 0 0 0 136.31223 69.632896 L 138.14261 71.107547 A 0.28422793 0.28422793 0 0 0 138.32009 71.171744 L 144.13109 71.171744 C 144.13109 71.171744 144.53432 71.184533 144.94148 70.964802 C 145.34863 70.745076 145.75981 70.250258 145.75981 69.412359 C 145.75981 68.784596 145.531 68.348561 145.24623 68.077054 z M 144.86709 68.487162 C 145.04782 68.646372 145.19148 68.908956 145.19148 69.411982 C 145.19148 70.081806 144.93345 70.323646 144.67185 70.464818 C 144.5818 70.513416 144.49207 70.544004 144.41204 70.564513 L 144.41242 68.255296 C 144.49342 68.275729 144.58576 68.307369 144.6779 68.357634 C 144.74236 68.39279 144.80685 68.434092 144.86709 68.487162 z M 143.81237 68.218666 L 143.81274 69.150283 L 138.57046 69.150283 L 138.57008 68.218666 L 143.81237 68.218666 z M 143.81274 69.650267 L 143.81274 70.603409 L 138.57046 70.603409 L 138.57046 69.650267 L 143.81274 69.650267 z M 138.0701 68.501134 L 138.07048 70.31943 L 136.94514 69.410093 L 138.0701 68.501134 z " />
    </g>
  </g>
</svg>

<svg xmlns="http://www.w3.org/2000/svg" width="8mm" height="8mm" viewBox="0 0 8 8"><path d="M145.246 68.077a1.4 1.4 0 0 0-.297-.217c-.403-.22-.804-.208-.804-.208l.008-.002h-5.833a.3.3 0 0 0-.177.065l-1.83 1.474a.284.284 0 0 0 0 .444l1.83 1.475a.3.3 0 0 0 .177.064h5.811s.403.013.81-.207.819-.715.819-1.553c0-.627-.229-1.063-.514-1.335m-.379.41c.18.16.324.422.324.925 0 .67-.258.912-.52 1.053q-.137.07-.259.1v-2.31a1.1 1.1 0 0 1 .455.232m-1.055-.268v.931h-5.242v-.931zm0 1.431v.953h-5.242v-.953zm-5.742-1.149v1.818l-1.125-.909z" style="color:#000;fill:#000;stroke-linecap:round;stroke-linejoin:round;-inkscape-stroke:none" transform="rotate(-45 -5.865 195.836)scale(.96763)"/></svg>
